X: 704
T: Jin lanfang
L: 1/8
M: 2/4
K: G
B2d A [I:setbarnb 1]| 
B2A B | 
d B d e | 
B A G B | 
A4 | 
A3B | 
D3E | 
G2B A | 
G3A | 
G4 | 
A3B | 
G3B | 
A GE2- | 
E2E G | 
A4 | 
A B G E | 
D2D2 | 
d2d2 | 
B d B A | 
G A d B | 
A3B | 
A4 |]

@@@ Tune index: 9578
